X: 179
T: a Trip to Brentford
B: 204 Favourite Country Dances
N: Published by Straight & Skillern, London ca.1775
F: http://imslp.org/wiki/204_Favourite_Country_Dances_(Various) p.90 #179
Z: 2014 John Chambers <jc:trillian.mit.edu>
M: C|
L: 1/8
K: Gm
% - - - - - - - - - - - - - - - - - - - - - - - - -
|:\
GABc dedc | BAG^F GDTD2 |\
GABc dedc | BAG^F G4 :|\
|:\
Bcde fgfe | dcBA BFTF2 |
Bcde fgfe | dcBA B4 :|\
|:\
bag^f g=fed | edcB {B}A2G^F |\
GABc dg^fg | dcBA G4 :|
% - - - - - - - - - - - - - - - - - - - - - - - - -
%%begintext align
%% The First and 2d Cu. foot and change sides .|
%% the same back again .|. foot it & Right hands
%% across :|. foot it & Left hands back again :|: Cross
%% over one Cu & turn .||. Right & Left at top :||:
%%endtext

%%sep 1 1 500
%%sep 1 1 500
